images/logo.svg

<svg width="144" height="56" viewBox="0 0 144 56" fill="none" xmlns="http://www.w3.org/2000/svg">
<path fill-rule="evenodd" clip-rule="evenodd" d="M27.9117 1.59027C28.3158 1.59027 28.6434 1.91868 28.6434 2.3243V10.9575C28.6434 11.3627 28.3158 11.6915 27.9117 11.6915H20.1276V55.2477C20.1276 55.6533 19.8 55.9821 19.3963 55.9821H9.24679C8.84268 55.9821 8.51548 55.6533 8.51548 55.2477V11.6915H0.73131C0.327196 11.6915 0 11.3627 0 10.9575V2.3243C0 1.91868 0.327196 1.59027 0.73131 1.59027H27.9117ZM70.0679 1.58995C75.1253 1.58995 78.9707 2.8336 81.6027 5.3201C84.2354 7.80621 85.5509 11.0963 85.5509 15.1881C85.5509 19.2807 84.2856 22.5056 81.7577 24.8621C79.229 27.2198 75.3325 28.3975 70.0679 28.3975V29.5631H73.1645C77.2407 29.5631 80.26 30.4956 82.2224 32.3604C84.1828 34.2253 85.1636 36.9194 85.1636 40.4416V51.32C85.1636 52.2009 85.2536 52.9005 85.435 53.4177C85.6155 53.9361 85.8343 54.3246 86.0929 54.5834C86.3504 54.8942 86.686 55.1018 87.0992 55.205V55.9818H77.422C76.0794 55.9818 75.0998 55.6202 74.4812 54.8942C73.8611 54.1693 73.5519 52.7185 73.5519 50.5428V38.4987C73.5519 35.9094 72.3901 34.6137 70.0679 34.6137V55.2478C70.0679 55.6534 69.7403 55.9818 69.3362 55.9818H59.1879C58.7838 55.9818 58.4562 55.6534 58.4562 55.2478V2.32438C58.4562 1.91876 58.7838 1.58995 59.1879 1.58995H70.0679ZM99.4253 1.59007C99.829 1.59007 100.157 1.91888 100.157 2.3241V45.8807H109.876C110.28 45.8807 110.608 46.2091 110.608 46.6148V55.2479C110.608 55.6531 110.28 55.9819 109.876 55.9819H89.2762C88.8721 55.9819 88.5445 55.6531 88.5445 55.2479V2.3241C88.5445 1.91888 88.8721 1.59007 89.2762 1.59007H99.4253ZM40.9187 0C46.1009 0 50.4592 3.90296 51.0479 9.07118L56.118 55.1671C56.1659 55.6019 55.8271 55.9819 55.3911 55.9819H44.8969C44.5099 55.9819 44.1899 55.6799 44.1668 55.2923L43.6666 47.046H38.17L37.6703 55.2923C37.6468 55.6799 37.3267 55.9819 36.9402 55.9819H26.4456C26.01 55.9819 25.6708 55.6019 25.7186 55.1671L30.7892 9.07118C31.3671 3.99693 35.5786 0.142344 40.6369 0.00385485L40.9187 0ZM127.934 0C133.117 0 137.475 3.90296 138.063 9.07118L143.134 55.1671C143.182 55.6019 142.843 55.9819 142.407 55.9819H131.912C131.526 55.9819 131.206 55.6799 131.182 55.2923L130.683 47.046H125.186L124.686 55.2923C124.663 55.6799 124.343 55.9819 123.956 55.9819H113.461C113.025 55.9819 112.687 55.6019 112.735 55.1671L117.805 9.07118C118.383 3.99693 122.594 0.142344 127.652 0.00385485L127.934 0ZM40.9187 12.4685C40.5911 12.4685 40.3197 12.7221 40.2954 13.0497L38.5574 36.9447H43.2797L41.5412 13.0497C41.5173 12.7221 41.2459 12.4685 40.9187 12.4685ZM127.934 12.4685C127.607 12.4685 127.335 12.7221 127.311 13.0497L125.573 36.9447H130.295L128.557 13.0497C128.533 12.7221 128.261 12.4685 127.934 12.4685ZM70.4549 10.1375H70.0679V23.3469H70.4549C71.4349 23.3469 72.2614 22.8804 72.9329 21.948C73.6029 21.0156 73.9384 19.2807 73.9384 16.7422C73.9384 14.2049 73.6029 12.4684 72.9329 11.5364C72.2614 10.6039 71.4349 10.1375 70.4549 10.1375Z" fill="black"/>
</svg>

<svg xmlns="http://www.w3.org/2000/svg" width="144" height="56" fill="none"><path fill="#000" fill-rule="evenodd" d="M27.912 1.59c.404 0 .731.329.731.734v8.633a.733.733 0 0 1-.731.734h-7.784v43.557a.733.733 0 0 1-.732.734H9.246a.733.733 0 0 1-.73-.734V11.692H.73A.733.733 0 0 1 0 10.956V2.325c0-.405.327-.734.731-.734h27.18Zm42.156 0c5.057 0 8.903 1.244 11.535 3.73 2.632 2.486 3.948 5.776 3.948 9.868 0 4.093-1.265 7.318-3.793 9.674-2.529 2.358-6.425 3.536-11.69 3.536v1.165h3.097c4.076 0 7.095.933 9.057 2.797 1.96 1.865 2.942 4.56 2.942 8.082V51.32c0 .88.09 1.58.271 2.098.18.518.4.907.658 1.165.257.311.593.519 1.006.622v.777h-9.677c-1.343 0-2.322-.362-2.94-1.088-.62-.725-.93-2.175-.93-4.351V38.499c0-2.59-1.162-3.885-3.484-3.885v20.634a.733.733 0 0 1-.732.734H59.188a.733.733 0 0 1-.732-.734V2.324c0-.405.328-.734.732-.734h10.88Zm29.357 0c.404 0 .732.329.732.734v43.557h9.719c.404 0 .732.328.732.734v8.633a.733.733 0 0 1-.732.734h-20.6a.733.733 0 0 1-.731-.734V2.324c0-.405.327-.734.731-.734h10.15ZM40.92 0c5.182 0 9.54 3.903 10.129 9.071l5.07 46.096a.733.733 0 0 1-.727.815H44.897a.732.732 0 0 1-.73-.69l-.5-8.246H38.17l-.5 8.246a.733.733 0 0 1-.73.69H26.446a.733.733 0 0 1-.727-.815l5.07-46.096c.578-5.074 4.79-8.929 9.848-9.067L40.919 0Zm87.015 0c5.183 0 9.541 3.903 10.129 9.071l5.071 46.096a.733.733 0 0 1-.727.815h-10.495a.733.733 0 0 1-.73-.69l-.499-8.246h-5.497l-.5 8.246a.732.732 0 0 1-.73.69h-10.495a.732.732 0 0 1-.726-.815l5.07-46.096c.578-5.074 4.789-8.929 9.847-9.067l.282-.004ZM40.919 12.469a.626.626 0 0 0-.624.58l-1.738 23.896h4.723L41.54 13.05a.625.625 0 0 0-.622-.582Zm87.015 0a.626.626 0 0 0-.623.58l-1.738 23.896h4.722l-1.738-23.895a.626.626 0 0 0-.623-.582Zm-57.48-2.332h-.386v13.21h.387c.98 0 1.806-.467 2.478-1.399.67-.932 1.005-2.667 1.005-5.206 0-2.537-.335-4.274-1.005-5.206-.672-.932-1.498-1.399-2.478-1.399Z" clip-rule="evenodd"/></svg>
